assets/images/icons/sad-but-relieved-face.svg

<svg width="49" height="48" viewBox="0 0 49 48" fill="none" xmlns="http://www.w3.org/2000/svg">
<path d="M24.8602 42.57C34.9587 42.57 43.1452 34.3835 43.1452 24.285C43.1452 14.1865 34.9587 6 24.8602 6C14.7617 6 6.5752 14.1865 6.5752 24.285C6.5752 34.3835 14.7617 42.57 24.8602 42.57Z" fill="url(#paint0_radial_7_763)"/>
<path opacity="0.5" d="M24.8602 42.57C34.9587 42.57 43.1452 34.3835 43.1452 24.285C43.1452 14.1865 34.9587 6 24.8602 6C14.7617 6 6.5752 14.1865 6.5752 24.285C6.5752 34.3835 14.7617 42.57 24.8602 42.57Z" fill="url(#paint1_radial_7_763)"/>
<path d="M24.8602 42.57C34.9587 42.57 43.1452 34.3835 43.1452 24.285C43.1452 14.1865 34.9587 6 24.8602 6C14.7617 6 6.5752 14.1865 6.5752 24.285C6.5752 34.3835 14.7617 42.57 24.8602 42.57Z" fill="url(#paint2_radial_7_763)"/>
<path d="M13.2653 17.1969C13.3083 18.0789 14.1366 18.5844 15.4918 18.5091C16.6534 18.4446 19.1488 17.541 20.7514 14.7445C21.0418 14.2282 20.5363 13.9809 20.2351 14.325C19.2241 15.4759 16.4168 17.0463 14.1473 16.8742C13.2438 16.8096 13.2653 17.1969 13.2653 17.1969Z" fill="url(#paint3_linear_7_763)"/>
<path d="M18.8907 25.0595C19.8649 25.0595 20.6547 23.8701 20.6547 22.4028C20.6547 20.9355 19.8649 19.7461 18.8907 19.7461C17.9165 19.7461 17.1267 20.9355 17.1267 22.4028C17.1267 23.8701 17.9165 25.0595 18.8907 25.0595Z" fill="url(#paint4_radial_7_763)"/>
<path d="M18.8907 20.6386C19.6436 20.6386 20.3105 21.2947 20.6547 22.2735C20.6332 20.8323 19.8479 19.6814 18.8907 19.6814C17.9334 19.6814 17.1482 20.843 17.1267 22.2735C17.4709 21.3055 18.1378 20.6386 18.8907 20.6386Z" fill="url(#paint5_linear_7_763)"/>
<path d="M30.8297 25.0595C31.804 25.0595 32.5937 23.8701 32.5937 22.4028C32.5937 20.9355 31.804 19.7461 30.8297 19.7461C29.8555 19.7461 29.0658 20.9355 29.0658 22.4028C29.0658 23.8701 29.8555 25.0595 30.8297 25.0595Z" fill="url(#paint6_radial_7_763)"/>
<path d="M36.4551 17.2613C36.4121 18.1433 35.5838 18.6488 34.2286 18.5735C33.0669 18.509 30.5716 17.6055 28.969 14.809C28.6786 14.2927 29.1841 14.0453 29.4852 14.3895C30.4963 15.5404 33.3036 17.1107 35.5731 16.9386C36.4766 16.8741 36.4551 17.2613 36.4551 17.2613Z" fill="url(#paint7_linear_7_763)"/>
<path d="M30.8297 20.7034C30.0768 20.7034 29.41 21.3595 29.0658 22.3383C29.0873 20.897 29.8724 19.7461 30.8297 19.7461C31.787 19.7461 32.5722 20.9078 32.5937 22.3383C32.2495 21.3702 31.5826 20.7034 30.8297 20.7034Z" fill="url(#paint8_linear_7_763)"/>
<path d="M24.8602 31.0505C30.2274 31.0505 31.9376 36.3532 30.3027 35.525C28.1085 34.4064 26.721 34.3096 24.8602 34.3096C22.9994 34.3096 21.6119 34.4171 19.4177 35.525C17.7829 36.3532 19.493 31.0505 24.8602 31.0505Z" fill="#643800"/>
<path d="M24.8602 31.9863C28.0225 31.9863 30.0231 33.7718 30.8943 35.2561C30.9481 34.1805 28.9798 31.0505 24.8602 31.0505C20.7407 31.0505 18.7724 34.1805 18.8262 35.2561C19.6974 33.7826 21.698 31.9863 24.8602 31.9863Z" fill="url(#paint9_linear_7_763)"/>
<path d="M17.6752 33.6962C18.7615 36.4174 16.8685 38.8912 14.6421 39.3C12.4156 39.7087 9.97399 38.2244 9.81265 35.4386C9.43622 29.0711 16.804 25.1882 16.804 25.1882C16.804 25.1882 16.2232 30.0284 17.6752 33.6962Z" fill="url(#paint10_linear_7_763)"/>
<path d="M14.7171 34.1804C13.8352 36.9232 9.7372 37.0953 9.877 33.9223C9.8125 34.4063 9.79096 34.9118 9.82324 35.4281C9.98458 38.2139 12.4262 39.709 14.6526 39.2895C16.8791 38.8808 18.7721 36.4069 17.6858 33.6857C16.223 30.0179 16.8038 25.167 16.8038 25.167C14.1578 30.9107 15.1474 32.836 14.7171 34.1804Z" fill="url(#paint11_linear_7_763)"/>
<path d="M16.2985 32.1476C17.1482 36.8695 11.824 38.7517 9.89874 36.0735C10.372 38.4398 12.5984 39.6659 14.6421 39.2895C16.8685 38.8808 18.7616 36.4069 17.6752 33.6857C16.2124 30.0179 16.7932 25.167 16.7932 25.167C16.7932 25.167 15.5993 28.2755 16.2985 32.1476Z" fill="url(#paint12_linear_7_763)"/>
<path d="M16.5136 34.9871C15.6639 38.5366 11.7595 38.4828 10.0816 36.7189C10.4366 37.6869 11.1249 38.4183 11.9424 38.8593C16.277 40.2038 18.3421 35.7508 17.7398 33.8363C17.7183 33.7825 17.7075 33.7287 17.686 33.6857C17.6537 33.6212 17.6322 33.5459 17.6107 33.4706C16.2555 29.8351 16.8148 25.167 16.8148 25.167C15.4165 30.4804 17.5569 30.6418 16.5136 34.9871Z" fill="url(#paint13_linear_7_763)"/>
<path d="M17.6752 33.6964C18.7615 36.4176 16.8685 38.8915 14.6421 39.3002C12.4156 39.7089 9.97399 38.2246 9.81265 35.4388C9.43622 29.0714 16.804 25.1885 16.804 25.1885C16.804 25.1885 16.2232 30.0286 17.6752 33.6964Z" fill="url(#paint14_radial_7_763)"/>
<defs>
<radialGradient id="paint0_radial_7_763" cx="0" cy="0" r="1" gradientUnits="userSpaceOnUse" gradientTransform="translate(21.2626 16.8747) scale(22.0585)">
<stop stop-color="#FFDF30"/>
<stop offset="1" stop-color="#FFB82E"/>
</radialGradient>
<radialGradient id="paint1_radial_7_763" cx="0" cy="0" r="1" gradientUnits="userSpaceOnUse" gradientTransform="translate(21.2626 16.8747) scale(17.3544)">
<stop stop-color="#FFE95F"/>
<stop offset="1" stop-color="#FFBB47" stop-opacity="0"/>
</radialGradient>
<radialGradient id="paint2_radial_7_763" cx="0" cy="0" r="1" gradientUnits="userSpaceOnUse" gradientTransform="translate(17.255 33.2377) rotate(72.6921) scale(16.5184 8.88456)">
<stop stop-color="#EA672A" stop-opacity="0.5"/>
<stop offset="0.3462" stop-color="#DB641B" stop-opacity="0.2846"/>
<stop offset="0.8036" stop-color="#C15E00" stop-opacity="0"/>
</radialGradient>
<linearGradient id="paint3_linear_7_763" x1="17.0416" y1="15.5228" x2="17.1688" y2="17.8308" gradientUnits="userSpaceOnUse">
<stop offset="0.00132565" stop-color="#3C2200"/>
<stop offset="1" stop-color="#7A4400"/>
</linearGradient>
<radialGradient id="paint4_radial_7_763" cx="0" cy="0" r="1" gradientUnits="userSpaceOnUse" gradientTransform="translate(18.3563 22.4697) rotate(73.8539) scale(2.58353 1.6715)">
<stop offset="0.00132565" stop-color="#7A4400"/>
<stop offset="1" stop-color="#643800"/>
</radialGradient>
<linearGradient id="paint5_linear_7_763" x1="18.8904" y1="19.7262" x2="18.8904" y2="22.2077" gradientUnits="userSpaceOnUse">
<stop offset="0.00132565" stop-color="#3C2200"/>
<stop offset="1" stop-color="#512D00"/>
</linearGradient>
<radialGradient id="paint6_radial_7_763" cx="0" cy="0" r="1" gradientUnits="userSpaceOnUse" gradientTransform="translate(30.2965 22.4701) rotate(73.8539) scale(2.58353 1.6715)">
<stop offset="0.00132565" stop-color="#7A4400"/>
<stop offset="1" stop-color="#643800"/>
</radialGradient>
<linearGradient id="paint7_linear_7_763" x1="32.6848" y1="15.5849" x2="32.5577" y2="17.8929" gradientUnits="userSpaceOnUse">
<stop offset="0.00132565" stop-color="#3C2200"/>
<stop offset="1" stop-color="#7A4400"/>
</linearGradient>
<linearGradient id="paint8_linear_7_763" x1="30.83" y1="19.7917" x2="30.83" y2="22.2732" gradientUnits="userSpaceOnUse">
<stop offset="0.00132565" stop-color="#3C2200"/>
<stop offset="1" stop-color="#512D00"/>
</linearGradient>
<linearGradient id="paint9_linear_7_763" x1="24.86" y1="29.6676" x2="24.86" y2="33.8987" gradientUnits="userSpaceOnUse">
<stop offset="0.00132565" stop-color="#3C2200"/>
<stop offset="1" stop-color="#512D00"/>
</linearGradient>
<linearGradient id="paint10_linear_7_763" x1="7.56788" y1="28.804" x2="19.897" y2="34.6532" gradientUnits="userSpaceOnUse">
<stop offset="0.0723628" stop-color="#17BAFD"/>
<stop offset="0.2085" stop-color="#D0F1FF"/>
<stop offset="0.668" stop-color="#80D9FD"/>
<stop offset="1" stop-color="#0098D5"/>
</linearGradient>
<linearGradient id="paint11_linear_7_763" x1="23.7231" y1="38.3435" x2="6.72844" y2="26.8883" gradientUnits="userSpaceOnUse">
<stop stop-color="#D0F1FF"/>
<stop offset="0.668" stop-color="#80D9FD"/>
<stop offset="1" stop-color="#0098D5"/>
</linearGradient>
<linearGradient id="paint12_linear_7_763" x1="9.20562" y1="26.1239" x2="20.5384" y2="39.5431" gradientUnits="userSpaceOnUse">
<stop offset="0.566" stop-color="#80D9FD"/>
<stop offset="1" stop-color="#0098D5"/>
</linearGradient>
<linearGradient id="paint13_linear_7_763" x1="10.1379" y1="26.6334" x2="19.1914" y2="38.8385" gradientUnits="userSpaceOnUse">
<stop offset="0.566" stop-color="#80D9FD"/>
<stop offset="1" stop-color="#0098D5"/>
</linearGradient>
<radialGradient id="paint14_radial_7_763" cx="0" cy="0" r="1" gradientUnits="userSpaceOnUse" gradientTransform="translate(13.0533 32.3404) rotate(-76.6192) scale(5.74207 3.38086)">
<stop stop-color="white" stop-opacity="0.45"/>
<stop offset="1" stop-color="white" stop-opacity="0"/>
</radialGradient>
</defs>
</svg>

<svg width="49" height="48" fill="none" xmlns="http://www.w3.org/2000/svg"><path d="M24.86 42.57c10.099 0 18.285-8.187 18.285-18.285S34.96 6 24.86 6C14.762 6 6.575 14.187 6.575 24.285S14.762 42.57 24.86 42.57z" fill="url(#a)"/><path opacity=".5" d="M24.86 42.57c10.099 0 18.285-8.187 18.285-18.285S34.96 6 24.86 6C14.762 6 6.575 14.187 6.575 24.285S14.762 42.57 24.86 42.57z" fill="url(#b)"/><path d="M24.86 42.57c10.099 0 18.285-8.187 18.285-18.285S34.96 6 24.86 6C14.762 6 6.575 14.187 6.575 24.285S14.762 42.57 24.86 42.57z" fill="url(#c)"/><path d="M13.265 17.197c.043.882.872 1.387 2.227 1.312 1.161-.064 3.657-.968 5.26-3.764.29-.517-.216-.764-.517-.42-1.01 1.15-3.818 2.721-6.088 2.55-.903-.065-.882.322-.882.322z" fill="url(#d)"/><path d="M18.89 25.06c.975 0 1.765-1.19 1.765-2.657s-.79-2.657-1.764-2.657-1.764 1.19-1.764 2.657.79 2.657 1.764 2.657z" fill="url(#e)"/><path d="M18.89 20.639c.754 0 1.42.656 1.765 1.634-.022-1.44-.807-2.592-1.764-2.592-.958 0-1.743 1.162-1.764 2.592.344-.968 1.01-1.634 1.764-1.634z" fill="url(#f)"/><path d="M30.83 25.06c.974 0 1.764-1.19 1.764-2.657s-.79-2.657-1.764-2.657-1.764 1.19-1.764 2.657.79 2.657 1.764 2.657z" fill="url(#g)"/><path d="M36.455 17.261c-.043.882-.871 1.388-2.226 1.313-1.162-.065-3.657-.969-5.26-3.765-.29-.516.215-.764.516-.42 1.011 1.151 3.819 2.722 6.088 2.55.904-.065.882.322.882.322z" fill="url(#h)"/><path d="M30.83 20.703c-.753 0-1.42.657-1.764 1.635.021-1.441.806-2.592 1.764-2.592.957 0 1.742 1.162 1.764 2.592-.345-.968-1.011-1.635-1.764-1.635z" fill="url(#i)"/><path d="M24.86 31.05c5.367 0 7.078 5.303 5.443 4.475-2.195-1.119-3.582-1.215-5.443-1.215-1.86 0-3.248.107-5.442 1.215-1.635.828.075-4.474 5.442-4.474z" fill="#643800"/><path d="M24.86 31.986c3.163 0 5.163 1.786 6.034 3.27.054-1.075-1.914-4.206-6.034-4.206s-6.088 3.13-6.034 4.206c.871-1.473 2.872-3.27 6.034-3.27z" fill="url(#j)"/><path d="M17.675 33.696c1.087 2.721-.806 5.195-3.033 5.604-2.226.409-4.668-1.076-4.83-3.861-.376-6.368 6.992-10.25 6.992-10.25s-.58 4.84.871 8.507z" fill="url(#k)"/><path d="M14.717 34.18c-.882 2.743-4.98 2.915-4.84-.258a7.75 7.75 0 0 0-.054 1.506c.162 2.786 2.603 4.281 4.83 3.861 2.226-.408 4.12-2.882 3.033-5.603-1.463-3.668-.882-8.519-.882-8.519-2.646 5.744-1.657 7.669-2.087 9.013z" fill="url(#l)"/><path d="M16.299 32.148c.85 4.721-4.475 6.604-6.4 3.925.473 2.367 2.7 3.593 4.743 3.216 2.227-.408 4.12-2.882 3.033-5.603-1.463-3.668-.882-8.519-.882-8.519s-1.194 3.108-.494 6.98z" fill="url(#m)"/><path d="M16.514 34.987c-.85 3.55-4.755 3.496-6.432 1.732a3.987 3.987 0 0 0 1.86 2.14c4.335 1.345 6.4-3.108 5.798-5.023-.022-.053-.032-.107-.054-.15a1.26 1.26 0 0 1-.075-.215c-1.355-3.636-.796-8.304-.796-8.304-1.399 5.313.742 5.475-.301 9.82z" fill="url(#n)"/><path d="M17.675 33.696c1.087 2.722-.806 5.196-3.033 5.604-2.226.409-4.668-1.075-4.83-3.861-.376-6.368 6.992-10.25 6.992-10.25s-.58 4.84.871 8.507z" fill="url(#o)"/><defs><linearGradient id="d" x1="17.042" y1="15.523" x2="17.169" y2="17.831" gradientUnits="userSpaceOnUse"><stop offset=".001" stop-color="#3C2200"/><stop offset="1" stop-color="#7A4400"/></linearGradient><linearGradient id="f" x1="18.89" y1="19.726" x2="18.89" y2="22.208" gradientUnits="userSpaceOnUse"><stop offset=".001" stop-color="#3C2200"/><stop offset="1" stop-color="#512D00"/></linearGradient><linearGradient id="h" x1="32.685" y1="15.585" x2="32.558" y2="17.893" gradientUnits="userSpaceOnUse"><stop offset=".001" stop-color="#3C2200"/><stop offset="1" stop-color="#7A4400"/></linearGradient><linearGradient id="i" x1="30.83" y1="19.792" x2="30.83" y2="22.273" gradientUnits="userSpaceOnUse"><stop offset=".001" stop-color="#3C2200"/><stop offset="1" stop-color="#512D00"/></linearGradient><linearGradient id="j" x1="24.86" y1="29.668" x2="24.86" y2="33.899" gradientUnits="userSpaceOnUse"><stop offset=".001" stop-color="#3C2200"/><stop offset="1" stop-color="#512D00"/></linearGradient><linearGradient id="k" x1="7.568" y1="28.804" x2="19.897" y2="34.653" gradientUnits="userSpaceOnUse"><stop offset=".072" stop-color="#17BAFD"/><stop offset=".208" stop-color="#D0F1FF"/><stop offset=".668" stop-color="#80D9FD"/><stop offset="1" stop-color="#0098D5"/></linearGradient><linearGradient id="l" x1="23.723" y1="38.343" x2="6.728" y2="26.888" gradientUnits="userSpaceOnUse"><stop stop-color="#D0F1FF"/><stop offset=".668" stop-color="#80D9FD"/><stop offset="1" stop-color="#0098D5"/></linearGradient><linearGradient id="m" x1="9.206" y1="26.124" x2="20.538" y2="39.543" gradientUnits="userSpaceOnUse"><stop offset=".566" stop-color="#80D9FD"/><stop offset="1" stop-color="#0098D5"/></linearGradient><linearGradient id="n" x1="10.138" y1="26.633" x2="19.191" y2="38.839" gradientUnits="userSpaceOnUse"><stop offset=".566" stop-color="#80D9FD"/><stop offset="1" stop-color="#0098D5"/></linearGradient><radialGradient id="a" cx="0" cy="0" r="1" gradientUnits="userSpaceOnUse" gradientTransform="translate(21.263 16.875) scale(22.0585)"><stop stop-color="#FFDF30"/><stop offset="1" stop-color="#FFB82E"/></radialGradient><radialGradient id="b" cx="0" cy="0" r="1" gradientUnits="userSpaceOnUse" gradientTransform="translate(21.263 16.875) scale(17.3544)"><stop stop-color="#FFE95F"/><stop offset="1" stop-color="#FFBB47" stop-opacity="0"/></radialGradient><radialGradient id="c" cx="0" cy="0" r="1" gradientUnits="userSpaceOnUse" gradientTransform="matrix(4.91433 15.77044 -8.48227 2.64321 17.255 33.238)"><stop stop-color="#EA672A" stop-opacity=".5"/><stop offset=".346" stop-color="#DB641B" stop-opacity=".285"/><stop offset=".804" stop-color="#C15E00" stop-opacity="0"/></radialGradient><radialGradient id="e" cx="0" cy="0" r="1" gradientUnits="userSpaceOnUse" gradientTransform="rotate(73.854 -5.77 23.447) scale(2.58353 1.6715)"><stop offset=".001" stop-color="#7A4400"/><stop offset="1" stop-color="#643800"/></radialGradient><radialGradient id="g" cx="0" cy="0" r="1" gradientUnits="userSpaceOnUse" gradientTransform="rotate(73.854 .2 31.39) scale(2.58353 1.6715)"><stop offset=".001" stop-color="#7A4400"/><stop offset="1" stop-color="#643800"/></radialGradient><radialGradient id="o" cx="0" cy="0" r="1" gradientUnits="userSpaceOnUse" gradientTransform="matrix(1.32884 -5.5862 3.28908 .7824 13.053 32.34)"><stop stop-color="#fff" stop-opacity=".45"/><stop offset="1" stop-color="#fff" stop-opacity="0"/></radialGradient></defs></svg>
